!!!COM: Gabriel Faure/
!!!CNT: Francais
!!!TXO: Francais
!!!OTL: Sylvie
!!!OPS: Op. 6
!!!ONM: No. 3
!!!LYR: Paul de Choudens
!!!ENC: Jacob Pegg
!!!YOR: Album of Twenty Songs (Vingt Me/lodies,) Volume I
!!!YOR: Edward B. Marks Music Corporation, RCA Building, Radio
!!!YOR: City, New York 20, N.Y.
!!!ODT: 1878/
!!NB: Vocal melody and text only encoded.
!!NB: First instance of melodic material only encoded.
**kern	**silbe
*clef G2	*
*k[b-e-a-d-]	*
*M3/4	*
*MM120	*
!! Allegretto moderato
!!created: 8/21/03 21:21
!!proofed and posted: 8/21/03 22:20
!!edit time: 20 min.
=6	=6
{8cc	{Si
8ee-	tu
8a-	veux
8b-	sa-
8cc	-voir
8dd-	ma
=7	=7
(8ee-	bel-
8cc)	|
4b-}	-le,}
{8b-	{Ou\
8b-	s'en-
=8	=8
4.cc	-vole
8ee-	a\
8cc	ti-
8dd-	-re
=9	=9
(8ee-	d'ai^-
8cc)	|
4.b-}	-le,}
{8b-	{L'oi-
=10	=10
8dd-	-seau
8cc	qui
8b-	chan-
8cc	-tait
8a-	sur
8b-	l'or-
=11	=11
2a-}	-meau?}
4r	.
=12	=12
{8b-	{Je
8ddn	te
8cc	le
8ee-	di-
8ddn	-rai,
8ff	ma
=13	=13
4cc	bel-
4.b-}	-le,}
{8b-	{Il
=14	=14
(8b-	vo-
8dd-)	|
8cc-	-le
8ee-	vers
8dd-	qui
8ff-	l'ap-
=15	=15
4cc-	-pel-
2b-}	-le}
=16	=16
{(4b-	{Vers
4ccn)	|
8dd-	ce-
8ee-	-lui~
=17	=17
(4ff	~la
4aa-	|
8gg	|
8ff)}	|}
=18	=18
{(8ee-	{Vers
8dd-)	|
(8cc	ce-
8b-)	|
(8an	-lui~
8gg-)	|
=19	=19
4.ff	~la\
8b-	Qui
8cc	l'ai-
8dd-	-me-
=20	=20
[2.ee-	-ra!
=21	=21
2.ee-]}	|}
=22	=22
{4dd-	{Vers
4.dd-	ce-
8dd-	-lui~
=23	=23
8dd-	~la\
8ddn	Qui
4.ee-	l'ai-
8g	-me-
=24	=24
(4b-	-ra!
2a-)}	|}
*-	*-
